X:1
T:Joseph, Reel
C:Marcel Messervier
M:C|
L:1/8
R:Reel
K:D
%%printtempo 0
Q:200
|:"D"f4 fafd|A2 F2 (3EFE D2|"G"G2 DG GDGB|d4 dedB|"A"c4 cAce|
a2g2f2e2|1"D"d2 cd fedc|"A"(3BcB A2 FAde:|2"D"d2 A2 "A"BcBA|"D"d4d2|:
K:A
cd|\
"A"e2ce a2cd|efedc4|"E"BABc d2B2|"A"AEAB cBAc|
"A"e2ce a2 cd|efedc4|"E"BABcd2B2|1ABcBA2:|2"A"A4 "A7"FAde|]
